X: 22802
T: Lanigan's Ball
R: jig
M: 6/8
K: Gmajor
EFE G2 A|B2 A B^cd|D2 E F2G|ABA AFD|
EFE G2 A|B2 A B^cd|edB cBA|BGE ~E2 D:|
|:e2 f gfg|eag fed|e2 f gfe|fdB ~B2 d|
e2 f gfg|eag fed|edB cBA|BGE ~E2 D:|

